X: 1448
T: Frank Collin's Waltz
B: australian traditional tunes wiki
M:3/4
L:1/8
R: Waltz
Q: 1/4=100
K:D
V:1 
A2|"D"d6|f2d2A2|"G"B2G4-|G4B2|"A"A2c2e2|A2c2e2|"D"a2f4-|f4e2|
"D"d2dd dd|f2d2d2|"G"B2G4-|G4B2|"A"A2c2e2|A2c2e2|"D"f2ddd2|d4||
% abcbook-tune_id 6342d53a6bfc6c6339b4e93c


% abcbook-boost 0
% abcbook-tablature 
% abcbook-transpose 
% abcbook-lastupdated 1665324365568
% abcbook-soundfonts 
% abcbook-repeats 1
% NFF Book 2009

